assets/capabilities/measure_pm1.svg

<svg height="960" viewBox="0 0 960 960" width="960" xmlns="http://www.w3.org/2000/svg"><g transform="translate(0 116)"><path d="m958.390767 427.285023c-18.472789-78.483091-75.669806-143.410627-150.691952-172.21256-37.312909-148.5314-173.079699-255.072463-327.444943-255.072463-155.293234 0-291.311354 107.37198-327.937938 257.00483-92.0519167 37.597649-152.23442292 127.080989-152.315934 226.47343 0 131.95169 102.658833 238.782608 234.182003 244.289854 1.059503.154777 2.128871.231886 3.199631.231886h37.515906c7.73763 0 14.887496-4.125961 18.756311-10.823673 3.868815-6.697711 3.868815-14.949632 0-21.647343-3.868815-6.697712-11.018681-10.823672-18.756311-10.823671h-35.137933c-.560661-.057971-1.121321-.096619-1.691648-.115942-109.232091-3.497585-194.7521183-91.835749-194.7521183-201.111111.0606921-85.461586 54.0525539-161.588712 134.7131343-189.942029 7.186141-2.501506 12.530057-8.591182 14.074507-16.038647 28.033015-135.710145 149.270969-234.2028981 288.15039-234.2028981 138.144762 0 259.199052 97.8647341 287.850726 232.7053141 1.609303 7.56717 7.137348 13.700303 14.499835 16.086956 66.447911 21.603865 117.661329 77.207729 133.649814 145.111111 2.738749 11.637999 14.398017 18.853352 26.041703 16.115941 11.643687-2.737412 18.862565-14.390985 16.123817-26.028985z"/><path d="m492.359867 513.087443c-8.324363-2.084024-23.234823-3.087443-45.561884-3.087443h-37.266491c-2.527909 0-4.952281 1.003296-6.739783 2.789173-1.787501 1.785878-2.791709 4.208047-2.791709 6.73366v186.954334c0 2.525613 1.004208 4.947782 2.791709 6.73366 1.787502 1.785877 4.211874 2.789173 6.739783 2.789173h18.696016c5.264098 0 9.531492-4.263517 9.531492-9.522833v-77.446583h3.862814c24.142583 0 40.482283-1.080605 49.810977-3.309353 13.635731-3.280409 24.567493-9.87017 32.495917-19.57632 7.928425-9.706149 12.071292-22.190998 12.071292-36.837057 0-14.646058-4.162181-27.015128-12.380317-36.904594-8.022112-9.684414-19.00415-16.470347-31.259816-19.315817zm-32.341405 79.01925-22.259462-.270151v-44.488127h23.514876c14.137897 0 20.743308 1.427942 23.785273 2.633975 3.701816 1.462744 6.836234 4.073514 8.942413 7.448456 2.350816 3.55149 3.581969 7.725543 3.534474 11.983139.071735 4.33922-1.159347 8.600404-3.534474 12.233994-2.265817 3.500584-5.601866 6.177151-9.512178 7.631774-3.244763 1.283218-10.18817 2.817292-24.470922 2.82694z"/><path d="m739.551542 510.009651h-3.029219c-3.631521-.000108-6.946896 2.065585-8.547415 5.32559l-66.758591 136.034093-67.376011-136.072684c-1.60559-3.242514-4.910044-5.29665-8.52812-5.29665h-3.02922c-4.738453-.004066-8.757314 3.480265-9.425309 8.171697l-26.76132 186.955223c-.391625 2.733215.422326 5.501854 2.230843 7.588167 1.808518 2.086314 4.433509 3.284913 7.194467 3.284913h18.040255c4.762892 0 8.793148-3.519477 9.434957-8.239228l14.181377-104.013018 53.098162 106.955599c1.608297 3.238765 4.9122 5.287016 8.528121 5.286999h4.775361c3.620236-.003617 6.925241-2.060029 8.528121-5.306294l52.374622-105.932932 14.239261 103.019294c.650081 4.708458 4.672483 8.216446 9.425309 8.219932h18.329671c2.762046.003177 5.389081-1.194441 7.198313-3.281578 1.809231-2.087137 2.621977-4.857668 2.226997-7.591501l-26.925322-186.945576c-.676246-4.685471-4.691584-8.162637-9.42531-8.162046z"/><path d="m865.479323 510h-36.759854c-3.318763 0-6.398558 1.725043-8.130233 4.553979l-11.200796 18.331694c-1.788957 2.938153-1.853422 6.611865-.16865 9.610879s4.85698 4.857303 8.298883 4.861511h19.852445v159.119104c0 5.259316 4.266876 9.522833 9.530333 9.522833h18.568216c5.263458 0 9.530333-4.263517 9.530333-9.522833v-186.954334c0-5.25555-4.260991-9.517508-9.520677-9.522833z"/><path d="m482 336c12.150264 0 22-9.849736 22-22s-9.849736-22-22-22-22 9.849736-22 22c.016067 12.143603 9.856397 21.983933 22 22z"/><path d="m481.999711 458c8.901574 0 16.925903-5.364281 20.328744-13.589773 3.402841-8.225493 1.513504-17.690991-4.786425-23.979785-6.299929-6.288795-15.768752-8.161384-23.98821-4.743995-8.219458 3.417388-13.56952 11.451196-13.55382 20.352758.03749 12.128239 9.871428 21.944796 21.999711 21.960795z"/><path d="m482 213c12.150264 0 22-9.849736 22-22s-9.849736-22-22-22-22 9.849736-22 22c.016067 12.143603 9.856397 21.983933 22 22z"/><path d="m409 375.000304c0-8.900691-5.363219-16.924411-13.587517-20.327827s-17.689037-1.515865-23.978601 4.782047-8.164557 15.765145-4.750234 23.984919c3.414324 8.219775 11.445152 13.572337 20.345836 13.560557 12.132036-.032133 21.954497-9.86763 21.970516-21.999696z"/><path d="m387 274c12.150264 0 22-9.849736 22-22s-9.849736-22-22-22-22 9.849736-22 22c.01072 12.145821 9.854179 21.98928 22 22z"/><path d="m292 292c-12.150264 0-22 9.849736-22 22s9.849736 22 22 22 22-9.849736 22-22c-.01072-12.145821-9.854179-21.98928-22-22z"/><path d="m577 397c12.150264 0 22-9.849736 22-22s-9.849736-22-22-22-22 9.849736-22 22c.016067 12.143603 9.856397 21.983933 22 22z"/><path d="m577 274c12.150264 0 22-9.849736 22-22s-9.849736-22-22-22-22 9.849736-22 22c.01072 12.145821 9.854179 21.98928 22 22z"/><path d="m694 313.990278c-.005369-12.148997-9.857481-21.993856-22.006479-21.990278-12.148999.00358-21.99531 9.854241-21.993521 22.003239.001789 12.148999 9.850999 21.996761 22 21.996761 12.149614-.010727 21.994641-9.860104 22-22.009722z"/></g></svg>

<?xml version="1.0" encoding="UTF-8"?>
<svg width="960px" height="960px" viewBox="0 0 960 960" version="1.1" xmlns="http://www.w3.org/2000/svg" xmlns:xlink="http://www.w3.org/1999/xlink">
    <title>custom-capabilities/measure_pm1</title>
    <g id="custom-capabilities/measure_pm1" stroke="none" stroke-width="1" fill="none" fill-rule="evenodd">
        <g id="measure_PM1" transform="translate(0.000000, 116.000000)" fill="#000000" fill-rule="nonzero">
            <path d="M958.390767,427.285023 C939.917978,348.801932 882.720961,283.874396 807.698815,255.072463 C770.385906,106.541063 634.619116,0 480.253872,0 C324.960638,0 188.942518,107.37198 152.315934,257.00483 C60.2640173,294.602479 0.0815110846,384.085819 0,483.47826 C0,615.42995 102.658833,722.260868 234.182003,727.768114 C235.241506,727.922891 236.310874,728 237.381634,728 L274.89754,728 C282.63517,728 289.785036,723.874039 293.653851,717.176327 C297.522666,710.478616 297.522666,702.226695 293.653851,695.528984 C289.785036,688.831272 282.63517,684.705312 274.89754,684.705313 L239.759607,684.705313 C239.198946,684.647342 238.638286,684.608694 238.067959,684.589371 C128.835868,681.091786 43.3158407,592.753622 43.3158407,483.47826 C43.3765328,398.016674 97.3683946,321.889548 178.028975,293.536231 C185.215116,291.034725 190.559032,284.945049 192.103482,277.497584 C220.136497,141.787439 341.374451,43.2946859 480.253872,43.2946859 C618.398634,43.2946859 739.452924,141.15942 768.104598,276 C769.713901,283.56717 775.241946,289.700303 782.604433,292.086956 C849.052344,313.690821 900.265762,369.294685 916.254247,437.198067 C918.992996,448.836066 930.652264,456.051419 942.29595,453.314008 C953.939637,450.576596 961.158515,438.923023 958.419767,427.285023 L958.390767,427.285023 Z" id="Path"></path>
            <path d="M492.359867,513.087443 C484.035504,511.003419 469.125044,510 446.797983,510 L409.531492,510 C407.003583,510 404.579211,511.003296 402.791709,512.789173 C401.004208,514.575051 400,516.99722 400,519.522833 L400,706.477167 C400,709.00278 401.004208,711.424949 402.791709,713.210827 C404.579211,714.996704 407.003583,716 409.531492,716 L428.227508,716 C433.491606,716 437.759,711.736483 437.759,706.477167 L437.759,629.030584 L441.621814,629.030584 C465.764397,629.030584 482.104097,627.949979 491.432791,625.721231 C505.068522,622.440822 516.000284,615.851061 523.928708,606.144911 C531.857133,596.438762 536,583.953913 536,569.307854 C536,554.661796 531.837819,542.292726 523.619683,532.40326 C515.597571,522.718846 504.615533,515.932913 492.359867,513.087443 L492.359867,513.087443 Z M460.018462,592.106693 L437.759,591.836542 L437.759,547.348415 L461.273876,547.348415 C475.411773,547.348415 482.017184,548.776357 485.059149,549.98239 C488.760965,551.445134 491.895383,554.055904 494.001562,557.430846 C496.352378,560.982336 497.583531,565.156389 497.536036,569.413985 C497.607771,573.753205 496.376689,578.014389 494.001562,581.647979 C491.735745,585.148563 488.399696,587.82513 484.489384,589.279753 C481.244621,590.562971 474.301214,592.097045 460.018462,592.106693 Z" id="Shape"></path>
            <path d="M739.551542,510.009651 L736.522323,510.009651 C732.890802,510.009543 729.575427,512.075236 727.974908,515.335241 L661.216317,651.369334 L593.840306,515.29665 C592.234716,512.054136 588.930262,510 585.312186,510 L582.282966,510 C577.544513,509.995934 573.525652,513.480265 572.857657,518.171697 L546.096337,705.12692 C545.704712,707.860135 546.518663,710.628774 548.32718,712.715087 C550.135698,714.801401 552.760689,716 555.521647,716 L573.561902,716 C578.324794,716 582.35505,712.480523 582.996859,707.760772 L597.178236,603.747754 L650.276398,710.703353 C651.884695,713.942118 655.188598,715.990369 658.804519,715.990352 L663.57988,715.990352 C667.200116,715.986735 670.505121,713.930323 672.108001,710.684058 L724.482623,604.751126 L738.721884,707.77042 C739.371965,712.478878 743.394367,715.986866 748.147193,715.990352 L766.476864,715.990352 C769.23891,715.993529 771.865945,714.795911 773.675177,712.708774 C775.484408,710.621637 776.297154,707.851106 775.902174,705.117273 L748.976852,518.171697 C748.300606,513.486226 744.285268,510.00906 739.551542,510.009651 Z" id="Path"></path>
            <path d="M865.479323,510 L828.719469,510 C825.400706,510 822.320911,511.725043 820.589236,514.553979 L809.38844,532.885673 C807.599483,535.823826 807.535018,539.497538 809.21979,542.496552 C810.904562,545.495566 814.07677,547.353855 817.518673,547.358063 L837.371118,547.358063 L837.371118,706.477167 C837.371118,711.736483 841.637994,716 846.901451,716 L865.469667,716 C870.733125,716 875,711.736483 875,706.477167 L875,519.522833 C875,514.267283 870.739009,510.005325 865.479323,510 Z" id="Path"></path>
            <path d="M482,336 C494.150264,336 504,326.150264 504,314 C504,301.849736 494.150264,292 482,292 C469.849736,292 460,301.849736 460,314 C460.016067,326.143603 469.856397,335.983933 482,336 L482,336 Z" id="Path"></path>
            <path d="M481.999711,458 C490.901285,458 498.925614,452.635719 502.328455,444.410227 C505.731296,436.184734 503.841959,426.719236 497.54203,420.430442 C491.242101,414.141647 481.773278,412.269058 473.55382,415.686447 C465.334362,419.103835 459.9843,427.137643 460,436.039205 C460.03749,448.167444 469.871428,457.984001 481.999711,458 Z" id="Path"></path>
            <path d="M482,213 C494.150264,213 504,203.150264 504,191 C504,178.849736 494.150264,169 482,169 C469.849736,169 460,178.849736 460,191 C460.016067,203.143603 469.856397,212.983933 482,213 L482,213 Z" id="Path"></path>
            <path d="M409,375.000304 C409,366.099613 403.636781,358.075893 395.412483,354.672477 C387.188185,351.269061 377.723446,353.156612 371.433882,359.454524 C365.144318,365.752436 363.269325,375.219669 366.683648,383.439443 C370.097972,391.659218 378.1288,397.01178 387.029484,397 C399.16152,396.967867 408.983981,387.13237 409,375.000304 L409,375.000304 Z" id="Path"></path>
            <path d="M387,274 C399.150264,274 409,264.150264 409,252 C409,239.849736 399.150264,230 387,230 C374.849736,230 365,239.849736 365,252 C365.01072,264.145821 374.854179,273.98928 387,274 Z" id="Path"></path>
            <path d="M292,292 C279.849736,292 270,301.849736 270,314 C270,326.150264 279.849736,336 292,336 C304.150264,336 314,326.150264 314,314 C313.98928,301.854179 304.145821,292.01072 292,292 L292,292 Z" id="Path"></path>
            <path d="M577,397 C589.150264,397 599,387.150264 599,375 C599,362.849736 589.150264,353 577,353 C564.849736,353 555,362.849736 555,375 C555.016067,387.143603 564.856397,396.983933 577,397 Z" id="Path"></path>
            <path d="M577,274 C589.150264,274 599,264.150264 599,252 C599,239.849736 589.150264,230 577,230 C564.849736,230 555,239.849736 555,252 C555.01072,264.145821 564.854179,273.98928 577,274 L577,274 Z" id="Path"></path>
            <path d="M694,313.990278 C693.994631,301.841281 684.142519,291.996422 671.993521,292 C659.844522,292.00358 649.998211,301.854241 650,314.003239 C650.001789,326.152238 659.850999,336 672,336 C684.149614,335.989273 693.994641,326.139896 694,313.990278 Z" id="Path"></path>
        </g>
    </g>
</svg>
